X:450
T:The Cuckoo's Nest
M:4/4
L:1/8
K:D
FG|:A(FDF) A(FDF)|A(GFE) D2 (EF|GE)=C(E GE)C(E|G=F)ED =C2 E2|
DCD(E F2) g2|fdA(F G2) (FG)|AFD(B, A,)(GFG)|1 F2 D2 D2 FG:|2 F2 D2 DABc|
|:d2 d2 d2 e(d|cB) A2 A2 AB|=c2 c2 c2 (dc|BA) G2 G2 (AG)|
FGF(E D2) g2|fdA(F G2) FG|AFDB, A,(GFG)|1 F2 D2 DABc:|2 F2 D2 D2 z2 |>|
